X: 4311
T: Cheap Mutton    a Strathspey
C: by Niel Gow
%R: strathspey, air
B: Niel Gow & Sons "A Fourth Collection of Strathspey Reels, etc." v.4 p.31 #1 (top 2 staves continued from p.30)
Z: 2022 John Chambers <jc:trillian.mit.edu>
M: C
L: 1/8
Q: "Slowish"
K: Gm
% - - - - - - - - - -
V: 1 staves=2
|:\
DG-G>B A>GFC | DG-G>B AG~g2 | fadf cfAF | D>GB>G A^FG2 :| Gg-g>a fc~f2 | Gg-ga ^fdg2 |
fadf cfAF | D>GB>G A^F~G2 || Ggg>a fc~f2 | Ggga ^fdg2 | fadf cfAF | D>GB>G A^FG2 |]
% - - - - - - - - - -
% Voice 2 preserves the staff layout in the book.
V: 2 clef=bass middle=d
|:\
g2g2 f2f2 | g2g2 g2g2 | a2b2 a2f2 | g2g2 d2G2 :| g2g2 f2f2 | g2g2 d2g2 |
a2b2 a2f2 | g2G2 d2G2 || g2g2 f2f2 | g2g2 d2g2 | a2b2 a2f2 | g2G2 d2[G2B2] |]


